lib/svgs/video.svg

<svg xmlns="http://www.w3.org/2000/svg" viewBox="0 0 20 20">
    <path fill="#000" fill-rule="evenodd" d="M13.427,12.6462233 L13.427,15.145 C13.427,15.4763708 13.1583708,15.745 12.827,15.745 L2.6,15.745 C2.26862915,15.745 2,15.4763708 2,15.145 L2,5.6 C2,5.26862915 2.26862915,5 2.6,5 L12.827,5 C13.1583708,5 13.427,5.26862915 13.427,5.6 L13.427,8.09857672 L17.3637042,6.41188908 C17.7596184,6.24225895 18.2,6.53267682 18.2,6.9634 L18.2,13.7814 C18.2,14.2121232 17.7596184,14.502541 17.3637042,14.3329109 L13.427,12.6462233 L13.427,12.6462233 L13.427,12.6462233 L13.427,12.6462233 Z M13.427,11.3360978 L17,12.9082209 L17,7.88733953 L13.427,9.39094054 M3.21403447,6.20000002 L3.21403447,14.5449997 L12.2269999,14.5449997 L12.2269999,6.20000002"/>
</svg>

<svg xmlns="http://www.w3.org/2000/svg" viewBox="0 0 20 20">
    <path fill="#000" fill-rule="evenodd" d="M13.427 12.646v2.499a.6.6 0 0 1-.6.6H2.6a.6.6 0 0 1-.6-.6V5.6a.6.6 0 0 1 .6-.6h10.227a.6.6 0 0 1 .6.6v2.499l3.937-1.687a.6.6 0 0 1 .836.551v6.818a.6.6 0 0 1-.836.552l-3.937-1.687m0-1.31L17 12.908v-5.02L13.427 9.39M3.214 6.2v8.345h9.013V6.2"/>
</svg>
